assets/img/braze_icons/clipboard-minus.svg

<svg fill="none" height="24" viewBox="0 0 24 24" width="24" xmlns="http://www.w3.org/2000/svg"><path clip-rule="evenodd" d="m8.86178 1.01695c.20815-.017007.45395-.016977.70633-.01695h4.86379c.2524-.000027.4982-.000057.7063.01695.2286.01868.4984.06274.7698.20104.3763.19175.6823.49771.874.87403.1383.27143.1824.54116.2011.76976.0038.04696.0068.09584.0091.14627.3952.01276.7336.0454 1.0432.12834 1.3803.36987 2.4585 1.44806 2.8284 2.82843.1371.51165.1368 1.10231.1363 1.8977v9.37888c0 .805 0 1.4693-.0442 2.0105-.0459.5621-.1445 1.0788-.3918 1.5642-.3835.7526-.9954 1.3645-1.748 1.748-.4854.2473-1.0021.3459-1.5642.3918-.5412.0442-1.2055.0442-2.0105.0442h-6.48263c-.80496 0-1.46931 0-2.0105-.0442-.5621-.0459-1.0788-.1445-1.56414-.3918-.75264-.3835-1.36457-.9954-1.74806-1.748-.24729-.4854-.34585-1.0021-.39178-1.5642-.04422-.5412-.04421-1.2055-.04419-2.0105l-.00005-9.37888c-.00043-.79539-.00075-1.38605.13634-1.8977.36987-1.38037 1.44806-2.45856 2.82843-2.82843.30949-.08292.64789-.11557 1.04302-.12833.0023-.05044.00527-.09932.00911-.14628.01868-.2286.06274-.49833.20104-.76976.19175-.37632.49771-.68228.87403-.87403.27143-.1383.54116-.18236.76976-.20104zm.24721 2.52906c-.10899.21391-.10899.49394-.10899 1.05399v.4h6v-.4c0-.56005 0-.84008-.109-1.05399-.0959-.18816-.2488-.34114-.437-.43702-.2139-.10899-.4939-.10899-1.054-.10899h-2.8c-.5601 0-.84008 0-1.05399.10899-.18816.09588-.34114.24886-.43702.43702zm-.10899 9.45399c-.55228 0-1 .4477-1 1s.44772 1 1 1h6c.5523 0 1-.4477 1-1s-.4477-1-1-1z" fill="#801ed7" fill-rule="evenodd"/></svg>

<svg width="24" height="24" viewBox="0 0 24 24" fill="none" xmlns="http://www.w3.org/2000/svg">
<path fill-rule="evenodd" clip-rule="evenodd" d="M8.86178 1.01695C9.06993 0.999943 9.31573 0.999973 9.56811 1L14.4319 1C14.6843 0.999973 14.9301 0.999943 15.1382 1.01695C15.3668 1.03563 15.6366 1.07969 15.908 1.21799C16.2843 1.40974 16.5903 1.7157 16.782 2.09202C16.9203 2.36345 16.9644 2.63318 16.9831 2.86178C16.9869 2.90874 16.9899 2.95762 16.9922 3.00805C17.3874 3.02081 17.7258 3.05345 18.0354 3.13639C19.4157 3.50626 20.4939 4.58445 20.8638 5.96482C21.0009 6.47647 21.0006 7.06713 21.0001 7.86252L21.0001 17.2414C21.0001 18.0464 21.0001 18.7107 20.9559 19.2519C20.91 19.814 20.8114 20.3307 20.5641 20.8161C20.1806 21.5687 19.5687 22.1806 18.8161 22.5641C18.3307 22.8114 17.814 22.91 17.2519 22.9559C16.7107 23.0001 16.0464 23.0001 15.2414 23.0001H8.75877C7.95381 23.0001 7.28946 23.0001 6.74827 22.9559C6.18617 22.91 5.66947 22.8114 5.18413 22.5641C4.43149 22.1806 3.81956 21.5687 3.43607 20.8161C3.18878 20.3307 3.09022 19.814 3.04429 19.2519C3.00007 18.7107 3.00008 18.0464 3.0001 17.2414L3.00005 7.86252C2.99962 7.06713 2.9993 6.47647 3.13639 5.96482C3.50626 4.58445 4.58445 3.50626 5.96482 3.13639C6.27431 3.05347 6.61271 3.02082 7.00784 3.00806C7.01014 2.95762 7.01311 2.90874 7.01695 2.86178C7.03563 2.63318 7.07969 2.36345 7.21799 2.09202C7.40974 1.7157 7.7157 1.40974 8.09202 1.21799C8.36345 1.07969 8.63318 1.03563 8.86178 1.01695ZM9.10899 3.54601C9 3.75992 9 4.03995 9 4.6V5H15V4.6C15 4.03995 15 3.75992 14.891 3.54601C14.7951 3.35785 14.6422 3.20487 14.454 3.10899C14.2401 3 13.9601 3 13.4 3H10.6C10.0399 3 9.75992 3 9.54601 3.10899C9.35785 3.20487 9.20487 3.35785 9.10899 3.54601ZM9 13C8.44772 13 8 13.4477 8 14C8 14.5523 8.44772 15 9 15H15C15.5523 15 16 14.5523 16 14C16 13.4477 15.5523 13 15 13H9Z" fill="#801ED7"/>
</svg>
